X:2
T:Песнь 3
M:4/4
L:1/4
Q:1/4=120
K:F
V:1 clef=treble name="Soprano"
%%MIDI program 40
V:2 clef=treble name="Alto"
%%MIDI program 40
V:3 clef=bass octave=-1 name="Tenor"
%%MIDI program 40
V:4 clef=bass octave=-2 name="Bass"
%%MIDI program 40
%%score [(1 2) (3 4)]
%%tempo { 40, 60, *80, 100, 120, 140 }
%%player_top
[V:1]ABc2ABcccccBcd(cB/A/)G2 |
s: "Песнь 3"
[V:2]FGA2FGAAAAAGAB(AG/F/)E2 |
w:Преж-де век от От-ца рож-ден-но-му не-тлен-но Сы---ну
[V:3]ccf2ccffffffff(fc)c2 |
[V:4]fff2fffffffffff2c2 |
[V:1]GABAGA(B/A/G)A2 |
[V:2]EFGFEF(G/F/E)F2 |
w:и впос-лед-ня-я от Де---вы
[V:3]ccccccc2c2 |
[V:4]ccccccc2f2 |
[V:1]ABcccdcB/A/G2 |
[V:2]FGAAABAG/F/E2 |
w:Воп-ло-щен-но-му без-се-мен--но
[V:3]ccfffffcc2 |
[V:4]ffffffffc2 |
[V:1]EF(GF)EFG/A/BA2 |
[V:2]^CD(ED)CDE/F/GF2 |
w:Хрис-ту Бо--гу во-зо--пи-им
[V:3]AAA2AAccc2 |
[V:4]AAA2Adccf2 |
[V:1]AB(cd)(cB/A/)G2 | (BA)GAB2G2A4 |]
[V:2]FG(AB)(AG/F/)E2 | (GF)EFG2E2F4 |]
w:воз-не-сый * рог ** наш, Свят * е-си, Го-спо-ди.
[V:3]ccf2(fc)c2 | c2ccc2c2c4 |]
[V:4]fff2f2c2 | c2ccc2c2f2 |]
